X:106
T:Real Polkas(2). Le4.106, The
M:2/4
L:1/8
Q:1/4=100
N:NB.No key sig in MS, Gmaj implied by F natural accidentals
B:L.Leadley MS#4 c1850
Z:Village Music Project, 2016 Ruairidh Greig
K:C
G(3F/G/F/ (EF)|.A.G.c.e|edAB|{d}c/>B/c/>d/ (eE)|
G(3F/G/F/ EF|.A.G.c.e|(e/d/^c/d/) ag|.c.e.czH"_fine":|
[B:L.Leadley MS#4 c1850
Z:Village Music Project, 2016 Ruairidh Greig
K:G]|:"_NB.no key sig in ms".d2.gz/ B/|(dc)(cB)|A2az/ c/|(ed)(dc)|
B2bz/ d/|(=fe)(ed)|c2dz/ F/|.A.G.Gz:|
[B:L.Leadley MS#4 c1850
Z:Village Music Project, 2016 Ruairidh Greig
K:C]cfFA|(AG) .G.A|_Bd DE|{G}F/>E/F/>G/ AC|
(cf) .F.A|AG .G.A|{c}._B/.A/.B/.d/ c>E|.F.A.Fz|
d(3c/d/c/ ._b.e|g(3f/g/f/ aA|c(3_B/c/B/ .G.e|g(3f/g/f/ A_B|
d(3c/d/c/ _be|g(3f/g/f/ aA|d/c/_b/(g/ e/c/)_B/G/|.F.f.F:|

